X:36
T:Emigrant's Adieu
T:Emigrant's Farewell
T:H\`o cha-n 'eil mulad oirnn
R:Slow Air
S:Simon Fraser Collection
N:No.226
O:Scottish
M:C
L:1/8
Q:1/4=70
K:E_
G|B,<EE<G FG C2|B,>C~E>G BG e2|cd/e/ B>G F>E C>c|
B>AG>F GEE:|
F|G>FE>F DE C2|B,>CE>G BG e2|cd/e/ B>A G>F E>c|
B>AG>F G>EE>F|G>FE>F DE C2|B,>CE>G B<G e2|
g>fe>G FGC>c|B>AG>F GEE||

